docs/svgs/text-select-move-back-word-outlined-filled.svg

<?xml version="1.0" encoding="UTF-8"?>
<svg xmlns="http://www.w3.org/2000/svg" xmlns:xlink="http://www.w3.org/1999/xlink" width="24px" height="24px" viewBox="0 0 24 24" version="1.1">
<g id="surface1">
<path style=" stroke:none;fill-rule:nonzero;fill:rgb(0%,0%,0%);fill-opacity:1;" d="M 11 5 L 11 3 L 13 3 L 13 5 Z M 11 21 L 11 19 L 13 19 L 13 21 Z M 7 5 L 7 3 L 9 3 L 9 5 Z M 7 21 L 7 19 L 9 19 L 9 21 Z M 6.300781 15.300781 L 3.699219 12.699219 C 3.5 12.5 3.398438 12.265625 3.398438 12 C 3.398438 11.734375 3.5 11.5 3.699219 11.300781 L 6.300781 8.699219 C 6.484375 8.515625 6.710938 8.421875 6.988281 8.414062 C 7.261719 8.40625 7.5 8.5 7.699219 8.699219 C 7.882812 8.882812 7.976562 9.117188 7.976562 9.398438 C 7.976562 9.683594 7.882812 9.917969 7.699219 10.101562 L 6.824219 11 L 12 11 C 12.285156 11 12.519531 11.097656 12.714844 11.289062 C 12.90625 11.480469 13 11.71875 13 12 C 13 12.285156 12.902344 12.519531 12.710938 12.714844 C 12.519531 12.90625 12.28125 13 12 13 L 6.824219 13 L 7.726562 13.898438 C 7.910156 14.082031 8 14.3125 8 14.589844 C 8 14.863281 7.898438 15.101562 7.699219 15.300781 C 7.515625 15.484375 7.285156 15.574219 7 15.574219 C 6.714844 15.574219 6.484375 15.484375 6.300781 15.300781 Z M 17 19 L 19 19 L 19 5 L 17 5 Z M 17 21 C 16.449219 21 15.980469 20.804688 15.585938 20.410156 C 15.195312 20.019531 15 19.550781 15 19 L 15 5 C 15 4.449219 15.195312 3.980469 15.589844 3.585938 C 15.980469 3.195312 16.449219 3 17 3 L 19 3 C 19.550781 3 20.019531 3.195312 20.414062 3.589844 C 20.804688 3.980469 21 4.449219 21 5 L 21 19 C 21 19.550781 20.804688 20.019531 20.410156 20.414062 C 20.019531 20.804688 19.550781 21 19 21 Z M 17 19 L 19 19 Z M 5 21 C 4.449219 21 3.980469 20.804688 3.585938 20.410156 C 3.195312 20.019531 3 19.550781 3 19 L 5 19 Z M 3 5 C 3 4.449219 3.195312 3.980469 3.589844 3.585938 C 3.980469 3.195312 4.449219 3 5 3 L 5 5 Z M 3 5 "/>
</g>
</svg>

<svg xmlns="http://www.w3.org/2000/svg" width="24" height="24" viewBox="0 0 24 24"><path d="M11 5V3h2v2h-2Zm0 16v-2h2v2h-2ZM7 5V3h2v2H7Zm0 16v-2h2v2H7Zm-.7-5.7l-2.6-2.6q-.3-.3-.3-.7t.3-.7l2.6-2.6q.275-.275.688-.287T7.7 8.7q.275.275.275.7t-.275.7l-.875.9H12q.425 0 .713.288T13 12q0 .425-.288.713T12 13H6.825l.9.9q.275.275.275.688t-.3.712q-.275.275-.7.275t-.7-.275ZM17 19h2V5h-2v14Zm0 2q-.825 0-1.413-.588T15 19V5q0-.825.588-1.413T17 3h2q.825 0 1.413.588T21 5v14q0 .825-.588 1.413T19 21h-2Zm0-2h2h-2ZM5 21q-.825 0-1.413-.588T3 19h2v2ZM3 5q0-.825.588-1.413T5 3v2H3Z"/></svg>
